X: 38533
T: Stephen Campbell's
R: jig
M: 6/8
K: Eminor
A,3|:B,EB, CEE|B,EFFGA|BB/A/B ceg|fed BAF
EB,B, ECC|B,EFFGA|BAB cBc|AGD E3:|
BAB efe|^eff gf=e|BEE BFF|BGG FED|
BAB efe|^eff gf=e|fBB cec|BAG E3|
BAB efe|^eff gf=e|BEE BFF|BGG FED|
^DEE =DB,A,|B,EFFGA|BAB cBc|BAG FED|E3|

